tag-arrow-down-outline.svg

<svg fill="currentColor" viewBox="0 0 24 24"><path d="M6.5 5C5.67 5 5 5.67 5 6.5S5.67 8 6.5 8 8 7.33 8 6.5 7.33 5 6.5 5m0 0C5.67 5 5 5.67 5 6.5S5.67 8 6.5 8 8 7.33 8 6.5 7.33 5 6.5 5m14.91 6.58-9-9C12.04 2.21 11.53 2 11 2H4c-1.1 0-2 .9-2 2v7c0 .53.21 1.04.59 1.42l.41.4c.64-.38 1.35-.63 2.08-.74L4 11V4h7l9 9-7 7-1.08-1.08c-.1.74-.36 1.44-.74 2.08l.41.41c.37.38.88.59 1.41.59s1.04-.21 1.41-.59l7-7c.38-.37.59-.88.59-1.41s-.21-1.04-.59-1.42M6.5 5C5.67 5 5 5.67 5 6.5S5.67 8 6.5 8 8 7.33 8 6.5 7.33 5 6.5 5M8 18v-4H6v4H4l3 3 3-3z"/></svg>

<svg  viewBox="0 0 24 24" fill="currentColor"><path  d="M6.5 5C5.67 5 5 5.67 5 6.5S5.67 8 6.5 8 8 7.33 8 6.5 7.33 5 6.5 5M6.5 5C5.67 5 5 5.67 5 6.5S5.67 8 6.5 8 8 7.33 8 6.5 7.33 5 6.5 5M21.41 11.58L12.41 2.58C12.04 2.21 11.53 2 11 2H4C2.9 2 2 2.9 2 4V11C2 11.53 2.21 12.04 2.59 12.42L3 12.82C3.64 12.44 4.35 12.19 5.08 12.08L4 11V4H11L20 13L13 20L11.92 18.92C11.82 19.66 11.56 20.36 11.18 21L11.59 21.41C11.96 21.79 12.47 22 13 22C13.53 22 14.04 21.79 14.41 21.41L21.41 14.41C21.79 14.04 22 13.53 22 13C22 12.47 21.79 11.96 21.41 11.58M6.5 5C5.67 5 5 5.67 5 6.5S5.67 8 6.5 8 8 7.33 8 6.5 7.33 5 6.5 5M8 18V14H6V18H4L7 21L10 18H8Z"/></svg>
